X:38
T: Vom jungen Grafen
N: A0037
O: Europa, Mitteleuropa, Deutschland
N: Melodie zuerst in Fr. Reichardts Musikal. Kunstmagazin 1782 S. 154.
R: Romanze, Ballade, Lied
M: 6/4
L: 1/4
K: D
A | D2E=F2G | A2AG2
A | _B2AG=FG | A3-Az
A | A_B=ccBA | A2GG2
G | =FGAAGF | =F2EE2
A | AG=FEDC | D3-Dz

